Origami/48x48/apps/ndm.svg

<svg width="48" height="48" version="1" xmlns="http://www.w3.org/2000/svg">
 <path d="m14 5.0007285a6.0006 6.0006 0 0 0 -6 5.9999995v17a6.0006 6.0006 0 0 0 6 6h3.455078l5.552734 8.328125a6.0006 6.0006 0 0 0 9.984376 0l6-9a6.0006 6.0006 0 0 0 -2.992188 -8.980469v-1.347656c0-2.822377-0.279901-5.4528-1.216797-7.982422-0.992449-2.679614-2.757185-5.0461915-5.207031-6.6210935-2.932768-1.8853496-5.676043-2.2211687-8.136719-2.302734a6.0006 6.0006 0 0 0 -3.439453 -1.09375z" style="opacity:.2"/>
 <path d="m14 4.0003642a6.0006 6.0006 0 0 0 -6 5.9999998v17a6.0006 6.0006 0 0 0 6 6h3.455078l5.552734 8.328125a6.0006 6.0006 0 0 0 9.984376 0l6-9a6.0006 6.0006 0 0 0 -2.992188 -8.980469v-1.347656c0-2.822377-0.279901-5.4528-1.216797-7.982422-0.992449-2.679614-2.757185-5.0461918-5.207031-6.6210938-2.932768-1.8853496-5.676043-2.2211687-8.136719-2.302734a6.0006 6.0006 0 0 0 -3.439453 -1.09375z" style="fill:#e14343"/>
 <path d="m14 10.000364v18h4v-12c3 0 5.146788 0.150167 6.167969 0.806641 0.51059 0.328236 0.89019 0.745702 1.238281 1.685547 0.348091 0.939844 0.59375 2.40596 0.59375 4.507812v7h-4l6 9 6-9h-4v-7c0-2.398148-0.254341-4.307031-0.84375-5.898438-0.589409-1.591405-1.584809-2.861439-2.824219-3.658203-2.478819-1.593526-5.332031-1.443359-8.332031-1.443359v-2z" style="opacity:.2"/>
 <path d="m14 10.000364v17h4v-12c3 0 5.146788 0.150167 6.167969 0.806641 0.51059 0.328236 0.89019 0.745702 1.238281 1.685547 0.348091 0.939844 0.59375 2.40596 0.59375 4.507812v7h-4l6 9 6-9h-4v-7c0-2.398148-0.254341-4.307031-0.84375-5.898438-0.589409-1.591405-1.584809-2.861439-2.824219-3.658203-2.478819-1.593526-5.332031-1.443359-8.332031-1.443359v-1z" style="fill:#ffffff"/>
 <path d="m14 4a6.0006 6.0006 0 0 0 -6 6v1a6.0006 6.0006 0 0 1 6 -6h4a6.0006 6.0006 0 0 1 3.439453 1.09375c2.460676 0.0815653 5.203951 0.4173848 8.136719 2.3027344 2.449846 1.574902 4.214582 3.9414796 5.207031 6.6210936 0.936896 2.529622 1.216797 5.160045 1.216797 7.982422v-1c0-2.822377-0.279901-5.4528-1.216797-7.982422-0.992449-2.679614-2.757185-5.0461916-5.207031-6.6210936-2.932768-1.8853496-5.676043-2.2211691-8.136719-2.3027344a6.0006 6.0006 0 0 0 -3.439453 -1.09375h-4zm22 19.347656v1a6.0006 6.0006 0 0 1 3.972656 5.195313 6.0006 6.0006 0 0 0 -3.972656 -6.195313z" style="fill:#ffffff;opacity:.2"/>
</svg>

<svg xmlns="http://www.w3.org/2000/svg" width="48" height="48" version="1">
 <path style="opacity:0.2" d="M 14,5.0007285 A 6.0006,6.0006 0 0 0 8,11.000728 v 17 a 6.0006,6.0006 0 0 0 6,6 h 3.455078 l 5.552734,8.328125 a 6.0006,6.0006 0 0 0 9.984376,0 l 6,-9 A 6.0006,6.0006 0 0 0 36,24.348384 v -1.347656 c 0,-2.822377 -0.279901,-5.4528 -1.216797,-7.982422 C 33.790754,12.338692 32.026018,9.9721145 29.576172,8.3972125 26.643404,6.5118629 23.900129,6.1760438 21.439453,6.0944785 A 6.0006,6.0006 0 0 0 18,5.0007285 Z"/>
 <path style="fill:#e14343" d="M 14,4.0003642 A 6.0006,6.0006 0 0 0 8,10.000364 v 17 a 6.0006,6.0006 0 0 0 6,6 h 3.455078 l 5.552734,8.328125 a 6.0006,6.0006 0 0 0 9.984376,0 l 6,-9 A 6.0006,6.0006 0 0 0 36,23.34802 v -1.347656 c 0,-2.822377 -0.279901,-5.4528 -1.216797,-7.982422 C 33.790754,11.338328 32.026018,8.9717502 29.576172,7.3968482 26.643404,5.5114986 23.900129,5.1756795 21.439453,5.0941142 A 6.0006,6.0006 0 0 0 18,4.0003642 Z"/>
 <path style="opacity:0.2" d="m 14,10.000364 v 18 h 4 v -12 c 3,0 5.146788,0.150167 6.167969,0.806641 0.51059,0.328236 0.89019,0.745702 1.238281,1.685547 C 25.754341,19.432396 26,20.898512 26,23.000364 v 7 h -4 l 6,9 6,-9 h -4 v -7 C 30,20.602216 29.745659,18.693333 29.15625,17.101926 28.566841,15.510521 27.571441,14.240487 26.332031,13.443723 23.853212,11.850197 21,12.000364 18,12.000364 v -2 z"/>
 <path style="fill:#ffffff" d="m 14,10.000364 v 17 h 4 v -12 c 3,0 5.146788,0.150167 6.167969,0.806641 0.51059,0.328236 0.89019,0.745702 1.238281,1.685547 C 25.754341,18.432396 26,19.898512 26,22.000364 v 7 h -4 l 6,9 6,-9 h -4 v -7 C 30,19.602216 29.745659,17.693333 29.15625,16.101926 28.566841,14.510521 27.571441,13.240487 26.332031,12.443723 23.853212,10.850197 21,11.000364 18,11.000364 v -1 z"/>
 <path style="opacity:0.2;fill:#ffffff" d="M 14 4 A 6.0006 6.0006 0 0 0 8 10 L 8 11 A 6.0006 6.0006 0 0 1 14 5 L 18 5 A 6.0006 6.0006 0 0 1 21.439453 6.09375 C 23.900129 6.1753153 26.643404 6.5111348 29.576172 8.3964844 C 32.026018 9.9713864 33.790754 12.337964 34.783203 15.017578 C 35.720099 17.5472 36 20.177623 36 23 L 36 22 C 36 19.177623 35.720099 16.5472 34.783203 14.017578 C 33.790754 11.337964 32.026018 8.9713864 29.576172 7.3964844 C 26.643404 5.5111348 23.900129 5.1753153 21.439453 5.09375 A 6.0006 6.0006 0 0 0 18 4 L 14 4 z M 36 23.347656 L 36 24.347656 A 6.0006 6.0006 0 0 1 39.972656 29.542969 A 6.0006 6.0006 0 0 0 36 23.347656 z"/>
</svg>
